svg/u1fab0.svg

<svg viewBox="0 0 128 128" xmlns="http://www.w3.org/2000/svg">
  <g>
    <path d="M63.3,84.21l-10.48,7.58c0,0,2.96,4.32,2.8,5.6c-0.1,0.77-9.32,3.43-10.62,5.41 c-1.3,1.98-3.09,12.07-3.09,12.07s-5.7,7.15-2.66,8.74c4.02,2.1,8.21-4.88,8.93-6.9c0.72-2.03,2.46-8.64,3.09-8.98 c2.27-1.22,8.5-2.51,11.59-5.41c2.69-2.52,4.63-11.68,4.63-11.68l7.56,5.31c0,0,1.49,15.21,2.2,17.86 c0.92,3.43,4.02,6.71,6.28,8.59c2.9,2.41,6.08-0.19,4.92-2.41c-2.04-3.91-5.12-8.01-5.12-8.01s0.58-17.09-0.77-19.94 c-0.73-1.53-9.08-7.29-9.08-7.29s5.41-0.43,8.01-0.29c2.61,0.14,5.36,0.14,6.08,1.16c0.72,1.01,0.56,17.9,2.32,19.5 c1.54,1.41,2.97,2.08,5.6,3.48c3.28,1.74,6.18,2.03,7.15,0.58c1.18-1.76-0.39-4.4-2.99-5.89c-2.61-1.5-4.83-2.32-4.83-2.32 s0.41-18.35-0.68-20.37c-1.09-2.03-3.67-2.95-10.04-3.96c-6.37-1.01-14.15,0.19-14.15,0.19L63.3,84.21z" fill="#868686"/>
    <path d="M39.78,96.43l-7.7-4.61c0,0-6.88,3.16-6.93,7.57c-0.05,3.8,0.24,11.72,0,13.46 c-0.24,1.74-3.66,5.75-1.39,7.68c2.72,2.32,7.46-3.43,8.11-7.1c0.58-3.28,0.19-9.65,0.19-12.36 C32.06,98.94,39.78,96.43,39.78,96.43z" fill="#868686"/>
    <path d="M47.49,49.58c0,0,1.59-9.27,6.52-15.35S70.08,23.8,82.83,23.8c12.75,0,20.18,11.15,19.58,22.16 c-0.6,11.01-6.4,17.6-13.06,23.86c-6.66,6.26-20.83,13.94-20.83,13.94l-2.37,1.45c0,0-6.52,21.16-35.26,10.82 C14.61,90.19,16.35,72.5,19.39,66.39c3.01-6.05,8.36-9.49,17.53-10.57C38.31,55.65,47.49,49.58,47.49,49.58z" fill="#5E6366"/>
    <path d="M67.2,29.34c-0.65,0-1.18-0.53-1.18-1.18v-8.4c0-0.65,0.53-1.18,1.18-1.18s1.18,0.53,1.18,1.18v8.4 C68.39,28.81,67.86,29.34,67.2,29.34z" fill="#858585"/>
    <path d="M73.87,28.48c-0.65,0-1.18-0.53-1.18-1.18v-7.53c0-0.65,0.53-1.18,1.18-1.18s1.18,0.53,1.18,1.18 v7.53C75.05,27.95,74.52,28.48,73.87,28.48z" fill="#858585"/>
    <path d="M62.57,30.79c-0.42,0-0.83-0.22-1.04-0.62l-3.62-6.66c-0.31-0.57-0.1-1.29,0.47-1.6 c0.57-0.31,1.29-0.1,1.6,0.47l3.62,6.66c0.31,0.57,0.1,1.29-0.47,1.6C62.95,30.75,62.76,30.79,62.57,30.79z" fill="#858585"/>
    <path d="M101.1,65.26c-0.11,0-0.23-0.02-0.34-0.05l-5.79-1.74c-0.63-0.19-0.98-0.85-0.79-1.47 c0.19-0.63,0.85-0.98,1.47-0.79l5.79,1.74c0.63,0.19,0.98,0.85,0.79,1.47C102.07,64.93,101.6,65.26,101.1,65.26z" fill="#858585"/>
    <path d="M99.07,72.07c-0.22,0-0.45-0.06-0.65-0.19l-7.1-4.63c-0.55-0.36-0.7-1.09-0.34-1.64 c0.36-0.55,1.09-0.7,1.64-0.34l7.1,4.63c0.55,0.36,0.7,1.09,0.34,1.64C99.83,71.88,99.45,72.07,99.07,72.07z" fill="#858585"/>
    <path d="M33.6,56.37c-0.01-0.05,2.03-5.02,5.79-8.01c5.03-4,11.3-5.21,14.87-5.12 c3.97,0.11,6.38,1.56,7.34,2.22c2.8,1.93,6.47,4.92,8.69,10.33s2.15,14.43,1.83,16.8c-1.16,8.59-3.48,11.84-6.08,12.81 c1.57-3.81,1.54-7.74,0.97-11.21c-0.45-2.68-2.46-7.46-5-9.85c-3.89-3.66-7.67-6.71-17.12-8.06C37.98,55.28,33.61,56.42,33.6,56.37 z" fill="#868686"/>
    <path d="M29.76,63.5l-1.23,7.53c0,0-3.97,1.56-4.27,2.68c-0.29,1.09,2.46,4.27,7.31,3.4 c5.52-0.99,8.1-8.07,7.17-12.17c-0.58-2.53-3.19-6.3-7.17-5.43C27.84,60.33,29.76,63.5,29.76,63.5z" fill="#A22918"/>
    <path d="M50.4,74.36c0,0-4.04,3.42-4.11,4.65c-0.07,1.23,0.6,3.65,5.28,4.44c4.63,0.79,9.22-2.23,10.35-7.72 c0.76-3.72-1.2-10.65-8.38-10.65C48.18,65.1,50.4,74.36,50.4,74.36z" fill="#A22918"/>
    <path d="M22.95,65.38c-1.34,3.44-0.76,8.13,1.59,9.92c3.45,2.63,8.83-0.43,10.4-5.87c1.83-6.32-0.14-9.99-4.03-10.43 C28.94,58.79,24.98,60.17,22.95,65.38z"/>
    <path d="M45.4,70.96c-1.34,3.44-1.04,8.99,2.39,10.36c4.81,1.92,9.56-1.67,10.5-7.24c0.94-5.58-2.15-8.55-4.76-8.98 C50.63,64.61,47.43,65.75,45.4,70.96z"/>
    <path d="M32.85,78.85c-1.26,0.56-1.68,2.65,0.07,5.22c1.84,2.71,6.93,3.18,9.2,1.2 c2.64-2.3,2.23-4.01,1.11-4.59c-2.01-1.04-3.22,2.08-5.67,1.61C35.46,81.88,35.92,77.49,32.85,78.85z" fill="#0A0A0A"/>
    <path d="M46.83,13.55c-0.63-0.47-4.1-3.41-5.09-4.46C39.39,6.59,36.95,4,32.43,4 c-5.89,0-9,8.24-9.27,24.5c-0.2,12.04,6.22,29.03,6.22,29.03s1.48-0.52,2.39-0.75c0.82-0.21,1.83-0.4,1.83-0.4s1.61-3.62,3.74-6.05 c1.01-1.15,2.09-2.06,3.24-2.85c1.36-0.93,2.19-1.32,2.5-1.51c1.99-1.5,3.66-3.07,5.31-4.39c10.7-8.64,8.66-14.87,7.87-17.54 C54.84,19.2,50.6,16.32,46.83,13.55z M45,16.03c1.45,1.07,2.86,2.12,4.11,3.26c-1.7,0.89-4.35,2.39-6.35,3.98 c-1.85,1.47-3.52,2.91-4.84,4.08c0.11-2.7,0.42-5.18,0.94-7.57c0.52-2.45,1.88-4.98,2.75-6.43C42.07,13.76,44.35,15.55,45,16.03z M32,54.44c-1.38-3.93-5.91-16.36-5.76-25.89c0.22-13.24,2.58-21.46,6.18-21.46c3.13,0,4.84,1.75,6.95,3.99 c-0.9,1.42-2.82,4.72-3.54,8.05c-0.88,4.1-1.2,8.39-1,13.51c0.18,4.71,1.66,14.1,1.91,15.7C36.12,49.03,32,54.44,32,54.44z M46.39,39.23c-2.04,1.73-4.6,4.05-6.94,6.35c-0.8-5.08-1.54-13.7-1.55-14.03c1.21-1.13,3.78-3.48,6.78-5.87 c2.1-1.67,5.14-3.3,6.59-4.03c0.73,0.98,1.33,2.05,1.68,3.26C53.73,27.51,53.89,32.84,46.39,39.23z" fill="#6EADB7" opacity="0.8"/>
    <path d="M118.41,33.04c-0.87-2.97-4.88-4.67-12.27-5.19c-5.93-0.42-12.74,0.14-12.74,0.14 c-3.94,0.33-14.4,1.22-19.82,7.35c-5.04,5.71-4.06,17.77-3.64,19.65c1.21,2.63,1.71,5.63,2,7.84c0.09,0.67,0.34,4.14,0.36,5.62 c0.04,2.81-0.29,5.53-0.79,7.77c0.03,0.13,23.34-14.53,30.1-20.23C114.12,45.44,119.77,37.72,118.41,33.04z M93.89,31.05 c2.29-0.2,7.92-0.29,8.41-0.28c-1.51,2.67-4.19,7.18-6.43,9.81c-1.63,1.92-3.61,3.58-5.67,5.14c0.08-2.17,0.18-5.21,0.18-7.13 c0-2.33,0.05-5.62,0.08-7.18C91.78,31.23,93.89,31.05,93.89,31.05z M75.89,37.39c2.77-3.13,7.46-4.68,11.47-5.48 c-0.03,1.71-0.07,4.58-0.07,6.68c0,2.88-0.24,8.58-0.28,9.46c-2.94,2.11-5.95,4.3-8.32,7c-1.57,1.79-4.82,5.42-4.83,5.41 c-0.09-1.03-0.53-2.17-0.71-3.61C72.59,52.45,71.73,42.1,75.89,37.39z M99.62,53.63C94.43,58,80.15,67.16,74.18,70.93 c0.46-1.83,0.31-6.42,0.31-6.42s3.86-4.39,6.52-7.43c2.18-2.49,5-4.52,7.99-6.67c3.22-2.32,6.55-4.71,9.21-7.83 c2.89-3.41,6.29-9.41,7.53-11.66c5.21,0.37,9.23,1.36,9.7,2.98C116.17,36.38,112.39,42.87,99.62,53.63z" fill="#6EADB7" opacity="0.8"/>
    <path d="M32.01,54.44c-1.38-3.93-5.91-16.36-5.76-25.89c0.22-13.24,2.58-21.46,6.18-21.46 c3.13,0,4.84,1.75,6.95,3.99c-0.9,1.42-2.82,4.72-3.54,8.05c-0.88,4.1-1.2,8.39-1,13.51c0.18,4.71,1.66,14.1,1.91,15.7 C36.12,49.03,32.01,54.44,32.01,54.44z" fill="#7BB1BA" opacity="0.5"/>
    <path d="M45.01,16.03c1.45,1.07,2.86,2.12,4.11,3.26c-1.7,0.89-4.35,2.39-6.35,3.98 c-1.85,1.47-3.52,2.91-4.84,4.08c0.11-2.7,0.42-5.18,0.94-7.57c0.52-2.45,1.88-4.98,2.75-6.43C42.07,13.76,44.36,15.55,45.01,16.03 z" fill="#7BB1BA" opacity="0.5"/>
    <path d="M46.4,39.23c-2.04,1.73-4.6,4.05-6.94,6.35c-0.8-5.08-1.54-13.7-1.55-14.03 c1.21-1.13,3.78-3.48,6.78-5.87c2.1-1.67,5.14-3.3,6.59-4.03c0.73,0.98,1.33,2.05,1.68,3.26C53.73,27.51,53.9,32.84,46.4,39.23z" fill="#7BB1BA" opacity="0.5"/>
    <path d="M75.89,37.39c2.77-3.13,7.46-4.68,11.47-5.48c-0.03,1.71-0.07,4.58-0.07,6.68 c0,2.88-0.24,8.58-0.28,9.46c-2.94,2.11-5.95,4.3-8.32,7c-1.57,1.79-4.82,5.42-4.83,5.41c-0.45-1.47-0.55-2.23-0.71-3.61 C72.59,52.23,71.73,42.1,75.89,37.39z" fill="#7BB1BA" opacity="0.5"/>
    <path d="M93.89,31.05c2.29-0.2,7.92-0.29,8.41-0.28c-1.51,2.67-4.19,7.18-6.43,9.81 c-1.63,1.92-3.61,3.58-5.67,5.14c0.08-2.17,0.18-5.21,0.18-7.13c0-2.33,0.05-5.62,0.08-7.18C91.78,31.23,93.89,31.05,93.89,31.05z" fill="#7BB1BA" opacity="0.5"/>
    <path d="M99.62,53.63C94.43,58,80.15,67.16,74.18,70.93c0.46-1.83,0.31-6.42,0.31-6.42 s3.86-4.39,6.52-7.43c2.18-2.49,5-4.52,7.99-6.67c3.22-2.32,6.55-4.71,9.21-7.83c2.89-3.41,6.29-9.41,7.53-11.66 c5.21,0.37,9.23,1.36,9.7,2.98C116.17,36.38,112.39,42.87,99.62,53.63z" fill="#7BB1BA" opacity="0.5"/>
  </g>
</svg>

<svg viewBox="0 0 128 128" xmlns="http://www.w3.org/2000/svg">
  <defs/>
  <path d="M63.3,84.21 L52.82,91.79 C52.82,91.79 55.78,96.11 55.62,97.39 C55.52,98.16 46.3,100.82 45,102.8 C43.7,104.78 41.91,114.87 41.91,114.87 C41.91,114.87 36.21,122.02 39.25,123.61 C43.27,125.71 47.46,118.73 48.18,116.71 C48.9,114.68 50.64,108.07 51.27,107.73 C53.54,106.51 59.77,105.22 62.86,102.32 C65.55,99.8 67.49,90.64 67.49,90.64 L75.05,95.95 C75.05,95.95 76.54,111.16 77.25,113.81 C78.17,117.24 81.27,120.52 83.53,122.4 C86.43,124.81 89.61,122.21 88.45,119.99 C86.41,116.08 83.33,111.98 83.33,111.98 C83.33,111.98 83.91,94.89 82.56,92.04 C81.83,90.51 73.48,84.75 73.48,84.75 C73.48,84.75 78.89,84.32 81.49,84.46 C84.1,84.6 86.85,84.6 87.57,85.62 C88.29,86.63 88.13,103.52 89.89,105.12 C91.43,106.53 92.86,107.2 95.49,108.6 C98.77,110.34 101.67,110.63 102.64,109.18 C103.82,107.42 102.25,104.78 99.65,103.29 C97.04,101.79 94.82,100.97 94.82,100.97 C94.82,100.97 95.23,82.62 94.14,80.6 C93.05,78.57 90.47,77.65 84.1,76.64 C77.73,75.63 69.95,76.83 69.95,76.83 L63.3,84.21 Z" fill="#868686"/>
  <path d="M39.78,96.43 L32.08,91.82 C32.08,91.82 25.2,94.98 25.15,99.39 C25.1,103.19 25.39,111.11 25.15,112.85 C24.91,114.59 21.49,118.6 23.76,120.53 C26.48,122.85 31.22,117.1 31.87,113.43 C32.45,110.15 32.06,103.78 32.06,101.07 C32.06,98.94 39.78,96.43 39.78,96.43 Z" fill="#868686"/>
  <path d="M47.49,49.58 C47.49,49.58 49.08,40.31 54.01,34.23 C58.94,28.15 70.08,23.8 82.83,23.8 C95.58,23.8 103.01,34.95 102.41,45.96 C101.81,56.97 96.01,63.56 89.35,69.82 C82.69,76.08 68.52,83.76 68.52,83.76 L66.15,85.21 C66.15,85.21 59.63,106.37 30.89,96.03 C14.61,90.19 16.35,72.5 19.39,66.39 C22.4,60.34 27.75,56.9 36.92,55.82 C38.31,55.65 47.49,49.58 47.49,49.58 Z" fill="#5E6366"/>
  <path d="M67.2,29.34 C66.55,29.34 66.02,28.81 66.02,28.16 L66.02,19.76 C66.02,19.11 66.55,18.58 67.2,18.58 C67.85,18.58 68.38,19.11 68.38,19.76 L68.38,28.16 C68.39,28.81 67.86,29.34 67.2,29.34 Z" fill="#858585"/>
  <path d="M73.87,28.48 C73.22,28.48 72.69,27.95 72.69,27.3 L72.69,19.77 C72.69,19.12 73.22,18.59 73.87,18.59 C74.52,18.59 75.05,19.12 75.05,19.77 L75.05,27.3 C75.05,27.95 74.52,28.48 73.87,28.48 Z" fill="#858585"/>
  <path d="M62.57,30.79 C62.15,30.79 61.74,30.57 61.53,30.17 L57.91,23.51 C57.6,22.94 57.81,22.22 58.38,21.91 C58.95,21.6 59.67,21.81 59.98,22.38 L63.6,29.04 C63.91,29.61 63.7,30.33 63.13,30.64 C62.95,30.75 62.76,30.79 62.57,30.79 Z" fill="#858585"/>
  <path d="M101.1,65.26 C100.99,65.26 100.87,65.24 100.76,65.21 L94.97,63.47 C94.34,63.28 93.99,62.62 94.18,62 C94.37,61.37 95.03,61.02 95.65,61.21 L101.44,62.95 C102.07,63.14 102.42,63.8 102.23,64.42 C102.07,64.93 101.6,65.26 101.1,65.26 Z" fill="#858585"/>
  <path d="M99.07,72.07 C98.85,72.07 98.62,72.01 98.42,71.88 L91.32,67.25 C90.77,66.89 90.62,66.16 90.98,65.61 C91.34,65.06 92.07,64.91 92.62,65.27 L99.72,69.9 C100.27,70.26 100.42,70.99 100.06,71.54 C99.83,71.88 99.45,72.07 99.07,72.07 Z" fill="#858585"/>
  <path d="M33.6,56.37 C33.59,56.32 35.63,51.35 39.39,48.36 C44.42,44.36 50.69,43.15 54.26,43.24 C58.23,43.35 60.64,44.8 61.6,45.46 C64.4,47.39 68.07,50.38 70.29,55.79 C72.51,61.2 72.44,70.22 72.12,72.59 C70.96,81.18 68.64,84.43 66.04,85.4 C67.61,81.59 67.58,77.66 67.01,74.19 C66.56,71.51 64.55,66.73 62.01,64.34 C58.12,60.68 54.34,57.63 44.89,56.28 C37.98,55.28 33.61,56.42 33.6,56.37 Z" fill="#868686"/>
  <path d="M29.76,63.5 L28.53,71.03 C28.53,71.03 24.56,72.59 24.26,73.71 C23.97,74.8 26.72,77.98 31.57,77.11 C37.09,76.12 39.67,69.04 38.74,64.94 C38.16,62.41 35.55,58.64 31.57,59.51 C27.84,60.33 29.76,63.5 29.76,63.5 Z" fill="#A22918"/>
  <path d="M50.4,74.36 C50.4,74.36 46.36,77.78 46.29,79.01 C46.22,80.24 46.89,82.66 51.57,83.45 C56.2,84.24 60.79,81.22 61.92,75.73 C62.68,72.01 60.72,65.08 53.54,65.08 C48.18,65.1 50.4,74.36 50.4,74.36 Z" fill="#A22918"/>
  <path d="M22.95,65.38 C21.61,68.82 22.19,73.51 24.54,75.3 C27.99,77.93 33.37,74.87 34.94,69.43 C36.77,63.11 34.8,59.44 30.91,59 C28.94,58.79 24.98,60.17 22.95,65.38 Z"/>
  <path d="M45.4,70.96 C44.06,74.4 44.36,79.95 47.79,81.32 C52.6,83.24 57.35,79.65 58.29,74.08 C59.23,68.5 56.14,65.53 53.53,65.1 C50.63,64.61 47.43,65.75 45.4,70.96 Z"/>
  <path d="M32.85,78.85 C31.59,79.41 31.17,81.5 32.92,84.07 C34.76,86.78 39.85,87.25 42.12,85.27 C44.76,82.97 44.35,81.26 43.23,80.68 C41.22,79.64 40.01,82.76 37.56,82.29 C35.46,81.88 35.92,77.49 32.85,78.85 Z" fill="#0A0A0A"/>
  <path d="M46.83,13.55 C46.2,13.08 42.73,10.14 41.74,9.09 C39.39,6.59 36.95,4 32.43,4 C26.54,4 23.43,12.24 23.16,28.5 C22.96,40.54 29.38,57.53 29.38,57.53 C29.38,57.53 30.86,57.01 31.77,56.78 C32.59,56.57 33.6,56.38 33.6,56.38 C33.6,56.38 35.21,52.76 37.34,50.33 C38.35,49.18 39.43,48.27 40.58,47.48 C41.94,46.55 42.77,46.16 43.08,45.97 C45.07,44.47 46.74,42.9 48.39,41.58 C59.09,32.94 57.05,26.71 56.26,24.04 C54.84,19.2 50.6,16.32 46.83,13.55 Z M45,16.03 C46.45,17.1 47.86,18.15 49.11,19.29 C47.41,20.18 44.76,21.68 42.76,23.27 C40.91,24.74 39.24,26.18 37.92,27.35 C38.03,24.65 38.34,22.17 38.86,19.78 C39.38,17.33 40.74,14.8 41.61,13.35 C42.07,13.76 44.35,15.55 45,16.03 Z M32,54.44 C30.62,50.51 26.09,38.08 26.24,28.55 C26.46,15.31 28.82,7.09 32.42,7.09 C35.55,7.09 37.26,8.84 39.37,11.08 C38.47,12.5 36.55,15.8 35.83,19.13 C34.95,23.23 34.63,27.52 34.83,32.64 C35.01,37.35 36.49,46.74 36.74,48.34 C36.12,49.03 32,54.44 32,54.44 Z M46.39,39.23 C44.35,40.96 41.79,43.28 39.45,45.58 C38.65,40.5 37.91,31.88 37.9,31.55 C39.11,30.42 41.68,28.07 44.68,25.68 C46.78,24.01 49.82,22.38 51.27,21.65 C52,22.63 52.6,23.7 52.95,24.91 C53.73,27.51 53.89,32.84 46.39,39.23 Z" fill="#6EADB7" opacity="0.8"/>
  <path d="M118.41,33.04 C117.54,30.07 113.53,28.37 106.14,27.85 C100.21,27.43 93.4,27.99 93.4,27.99 C89.46,28.32 79,29.21 73.58,35.34 C68.54,41.05 69.52,53.11 69.94,54.99 C71.15,57.62 71.65,60.62 71.94,62.83 C72.03,63.5 72.28,66.97 72.3,68.45 C72.34,71.26 72.01,73.98 71.51,76.22 C71.54,76.35 94.85,61.69 101.61,55.99 C114.12,45.44 119.77,37.72 118.41,33.04 Z M93.89,31.05 C96.18,30.85 101.81,30.76 102.3,30.77 C100.79,33.44 98.11,37.95 95.87,40.58 C94.24,42.5 92.26,44.16 90.2,45.72 C90.28,43.55 90.38,40.51 90.38,38.59 C90.38,36.26 90.43,32.97 90.46,31.41 C91.78,31.23 93.89,31.05 93.89,31.05 Z M75.89,37.39 C78.66,34.26 83.35,32.71 87.36,31.91 C87.33,33.62 87.29,36.49 87.29,38.59 C87.29,41.47 87.05,47.17 87.01,48.05 C84.07,50.16 81.06,52.35 78.69,55.05 C77.12,56.84 73.87,60.47 73.86,60.46 C73.77,59.43 73.33,58.29 73.15,56.85 C72.59,52.45 71.73,42.1 75.89,37.39 Z M99.62,53.63 C94.43,58 80.15,67.16 74.18,70.93 C74.64,69.1 74.49,64.51 74.49,64.51 C74.49,64.51 78.35,60.12 81.01,57.08 C83.19,54.59 86.01,52.56 89,50.41 C92.22,48.09 95.55,45.7 98.21,42.58 C101.1,39.17 104.5,33.17 105.74,30.92 C110.95,31.29 114.97,32.28 115.44,33.9 C116.17,36.38 112.39,42.87 99.62,53.63 Z" fill="#6EADB7" opacity="0.8"/>
  <path d="M32.01,54.44 C30.63,50.51 26.1,38.08 26.25,28.55 C26.47,15.31 28.83,7.09 32.43,7.09 C35.56,7.09 37.27,8.84 39.38,11.08 C38.48,12.5 36.56,15.8 35.84,19.13 C34.96,23.23 34.64,27.52 34.84,32.64 C35.02,37.35 36.5,46.74 36.75,48.34 C36.12,49.03 32.01,54.44 32.01,54.44 Z" fill="#7BB1BA" opacity="0.5"/>
  <path d="M45.01,16.03 C46.46,17.1 47.87,18.15 49.12,19.29 C47.42,20.18 44.77,21.68 42.77,23.27 C40.92,24.74 39.25,26.18 37.93,27.35 C38.04,24.65 38.35,22.17 38.87,19.78 C39.39,17.33 40.75,14.8 41.62,13.35 C42.07,13.76 44.36,15.55 45.01,16.03 Z" fill="#7BB1BA" opacity="0.5"/>
  <path d="M46.4,39.23 C44.36,40.96 41.8,43.28 39.46,45.58 C38.66,40.5 37.92,31.88 37.91,31.55 C39.12,30.42 41.69,28.07 44.69,25.68 C46.79,24.01 49.83,22.38 51.28,21.65 C52.01,22.63 52.61,23.7 52.96,24.91 C53.73,27.51 53.9,32.84 46.4,39.23 Z" fill="#7BB1BA" opacity="0.5"/>
  <path d="M75.89,37.39 C78.66,34.26 83.35,32.71 87.36,31.91 C87.33,33.62 87.29,36.49 87.29,38.59 C87.29,41.47 87.05,47.17 87.01,48.05 C84.07,50.16 81.06,52.35 78.69,55.05 C77.12,56.84 73.87,60.47 73.86,60.46 C73.41,58.99 73.31,58.23 73.15,56.85 C72.59,52.23 71.73,42.1 75.89,37.39 Z" fill="#7BB1BA" opacity="0.5"/>
  <path d="M93.89,31.05 C96.18,30.85 101.81,30.76 102.3,30.77 C100.79,33.44 98.11,37.95 95.87,40.58 C94.24,42.5 92.26,44.16 90.2,45.72 C90.28,43.55 90.38,40.51 90.38,38.59 C90.38,36.26 90.43,32.97 90.46,31.41 C91.78,31.23 93.89,31.05 93.89,31.05 Z" fill="#7BB1BA" opacity="0.5"/>
  <path d="M99.62,53.63 C94.43,58 80.15,67.16 74.18,70.93 C74.64,69.1 74.49,64.51 74.49,64.51 C74.49,64.51 78.35,60.12 81.01,57.08 C83.19,54.59 86.01,52.56 89,50.41 C92.22,48.09 95.55,45.7 98.21,42.58 C101.1,39.17 104.5,33.17 105.74,30.92 C110.95,31.29 114.97,32.28 115.44,33.9 C116.17,36.38 112.39,42.87 99.62,53.63 Z" fill="#7BB1BA" opacity="0.5"/>
</svg>
